static/img/spotify.svg

<svg fill="none" height="34" viewBox="0 0 34 34" width="34" xmlns="http://www.w3.org/2000/svg"><path clip-rule="evenodd" d="m17 0c-9.35 0-17 7.65-17 17s7.65 17 17 17 17-7.65 17-17-7.565-17-17-17zm7.82 24.565c-.34.51-.935.68-1.445.34-3.995-2.465-9.01-2.975-14.96-1.615-.595.17-1.105-.255-1.275-.765-.17-.595.255-1.105.765-1.275 6.46-1.445 12.07-.85 16.49 1.87.595.255.68.935.425 1.445zm2.04-4.675c-.425.595-1.19.85-1.785.425-4.59-2.805-11.56-3.655-16.915-1.955-.68.17-1.445-.17-1.615-.85s.17-1.445.85-1.615c6.205-1.87 13.855-.935 19.125 2.295.51.255.765 1.105.34 1.7zm.17-4.76c-5.44-3.23-14.535-3.57-19.72-1.955-.85.255-1.7-.255-1.955-1.02-.255-.85.255-1.7 1.02-1.955 6.035-1.785 15.98-1.445 22.27 2.295.765.425 1.02 1.445.595 2.21-.425.595-1.445.85-2.21.425z" fill="#10bc4c" fill-rule="evenodd"/></svg>

<svg width="34" height="34" viewBox="0 0 34 34" fill="none" xmlns="http://www.w3.org/2000/svg">
<path fill-rule="evenodd" clip-rule="evenodd" d="M17 0C7.65 0 0 7.65 0 17C0 26.35 7.65 34 17 34C26.35 34 34 26.35 34 17C34 7.65 26.435 0 17 0ZM24.82 24.565C24.48 25.075 23.885 25.245 23.375 24.905C19.38 22.44 14.365 21.93 8.415 23.29C7.82 23.46 7.31 23.035 7.14 22.525C6.97 21.93 7.395 21.42 7.905 21.25C14.365 19.805 19.975 20.4 24.395 23.12C24.99 23.375 25.075 24.055 24.82 24.565ZM26.86 19.89C26.435 20.485 25.67 20.74 25.075 20.315C20.485 17.51 13.515 16.66 8.16 18.36C7.48 18.53 6.715 18.19 6.545 17.51C6.375 16.83 6.715 16.065 7.395 15.895C13.6 14.025 21.25 14.96 26.52 18.19C27.03 18.445 27.285 19.295 26.86 19.89ZM27.03 15.13C21.59 11.9 12.495 11.56 7.31 13.175C6.46 13.43 5.61 12.92 5.355 12.155C5.1 11.305 5.61 10.455 6.375 10.2C12.41 8.415 22.355 8.755 28.645 12.495C29.41 12.92 29.665 13.94 29.24 14.705C28.815 15.3 27.795 15.555 27.03 15.13Z" fill="#10BC4C"/>
</svg>
